svg/企业版.svg

<svg width="120" height="120" viewBox="0 0 120 120" fill="none" xmlns="http://www.w3.org/2000/svg"><rect width="120" height="120" rx="30" fill="url(#paint1_linear_0_1)"/><path d="M82.0498 51.0892H40.8053C39.3168 51.0892 38.1009 52.3015 38.1009 53.7951V72.0465C38.1009 73.5401 39.3102 74.7524 40.8053 74.7524H82.0498C83.5382 74.7524 84.7475 73.5401 84.7475 72.0465V53.7951C84.7475 52.3015 83.5382 51.0892 82.0498 51.0892ZM72.2021 70.3051C67.9095 70.3051 64.4343 66.8156 64.4277 62.5156C64.4277 58.2156 67.9095 54.7261 72.2021 54.7261C76.4947 54.7261 79.9699 58.2156 79.9699 62.5156C79.9699 66.8156 76.488 70.3051 72.2021 70.3051Z" fill="url(#paint2_linear_0_1)"/><path d="M91.3784 40.0178H77.504C76.401 33.7956 69.6897 29 61.603 29C53.5162 29 46.8049 33.8023 45.7019 40.0178H31.6282C28.5184 40.0178 26 42.5429 26 45.6573V79.3605C26 82.4749 28.5184 85 31.6282 85H91.3718C94.4816 85 97 82.4749 97 79.3605V45.6573C97 42.5429 94.4816 40.0178 91.3718 40.0178H91.3784ZM61.603 34.3582C66.5334 34.3582 70.3039 36.8096 71.5 40.0178L51.5 40.0972C52.6961 36.889 56.6725 34.3582 61.603 34.3582ZM91.5778 77.7329C91.5778 79.5614 90.096 81.0416 88.2753 81.0416H34.7445C32.9172 81.0416 31.4421 79.5614 31.4421 77.7329V48.6512C31.4421 46.8228 32.9239 45.3425 34.7445 45.3425H88.2753C90.1027 45.3425 91.5778 46.8228 91.5778 48.6512V77.7329Z" fill="url(#paint3_linear_0_1)"/><path d="M77.504 40.0178H91.3784H91.3718M77.504 40.0178C76.401 33.7956 69.6897 29 61.603 29C53.5162 29 46.8049 33.8023 45.7019 40.0178H31.6282C28.5184 40.0178 26 42.5429 26 45.6573V79.3605C26 82.4749 28.5184 85 31.6282 85H91.3718C94.4816 85 97 82.4749 97 79.3605V45.6573C97 42.5429 94.4816 40.0178 91.3718 40.0178M77.504 40.0178H91.3718M82.0498 51.0892H40.8053C39.3168 51.0892 38.1009 52.3015 38.1009 53.7951V72.0465C38.1009 73.5401 39.3102 74.7524 40.8053 74.7524H82.0498C83.5382 74.7524 84.7475 73.5401 84.7475 72.0465V53.7951C84.7475 52.3015 83.5382 51.0892 82.0498 51.0892ZM72.2021 70.3051C67.9095 70.3051 64.4343 66.8156 64.4277 62.5156C64.4277 58.2156 67.9095 54.7261 72.2021 54.7261C76.4947 54.7261 79.9699 58.2156 79.9699 62.5156C79.9699 66.8156 76.488 70.3051 72.2021 70.3051ZM61.603 34.3582C66.5334 34.3582 70.3039 36.8096 71.5 40.0178L51.5 40.0972C52.6961 36.889 56.6725 34.3582 61.603 34.3582ZM91.5778 77.7329C91.5778 79.5614 90.096 81.0416 88.2753 81.0416H34.7445C32.9172 81.0416 31.4421 79.5614 31.4421 77.7329V48.6512C31.4421 46.8227 32.9239 45.3425 34.7445 45.3425H88.2753C90.1027 45.3425 91.5778 46.8227 91.5778 48.6512V77.7329Z" stroke="url(#paint4_linear_0_1)"/><defs><linearGradient id="paint1_linear_0_1" x1="60" y1="-0.129948" x2="60" y2="119.87" gradientUnits="userSpaceOnUse"><stop stop-color="#C873F5"/><stop offset="1" stop-color="#7B33BB"/></linearGradient><linearGradient id="paint2_linear_0_1" x1="61.5" y1="29" x2="61.5" y2="85" gradientUnits="userSpaceOnUse"><stop stop-color="#F0D8FF"/><stop offset="1" stop-color="#CD8FFF"/></linearGradient><linearGradient id="paint3_linear_0_1" x1="61.5" y1="29" x2="61.5" y2="85" gradientUnits="userSpaceOnUse"><stop stop-color="#F0D8FF"/><stop offset="1" stop-color="#CD8FFF"/></linearGradient><linearGradient id="paint4_linear_0_1" x1="61.5" y1="29" x2="61.5" y2="85" gradientUnits="userSpaceOnUse"><stop stop-color="#F9F2FF"/><stop offset="1" stop-color="#C275FF"/></linearGradient><clipPath id="clip0_0_1"></clipPath></defs></svg>

<svg fill="none" viewBox="0 0 120 120"><rect width="120" height="120" fill="url(#a)" rx="30"/><path fill="url(#b)" d="M82.05 51.09H40.805a2.71 2.71 0 0 0-2.704 2.705v18.251a2.705 2.705 0 0 0 2.704 2.706H82.05a2.703 2.703 0 0 0 2.698-2.706v-18.25a2.703 2.703 0 0 0-2.698-2.707m-9.848 19.215c-4.293 0-7.768-3.49-7.774-7.79 0-4.3 3.481-7.789 7.774-7.789s7.768 3.49 7.768 7.79-3.482 7.79-7.768 7.79"/><path fill="url(#c)" d="M91.378 40.018H77.504C76.401 33.796 69.69 29 61.603 29s-14.798 4.802-15.901 11.018H31.628A5.633 5.633 0 0 0 26 45.658V79.36A5.633 5.633 0 0 0 31.628 85h59.744A5.633 5.633 0 0 0 97 79.36V45.658a5.633 5.633 0 0 0-5.628-5.64zm-29.775-5.66c4.93 0 8.7 2.452 9.897 5.66l-20 .08c1.196-3.209 5.172-5.74 10.103-5.74m29.975 43.375a3.307 3.307 0 0 1-3.303 3.309h-53.53a3.303 3.303 0 0 1-3.303-3.31v-29.08a3.307 3.307 0 0 1 3.303-3.31h53.53a3.303 3.303 0 0 1 3.303 3.31z"/><path stroke="url(#d)" d="M77.504 40.018h13.874-.006m-13.868 0C76.401 33.796 69.69 29 61.603 29s-14.798 4.802-15.901 11.018H31.628A5.633 5.633 0 0 0 26 45.658V79.36A5.633 5.633 0 0 0 31.628 85h59.744A5.633 5.633 0 0 0 97 79.36V45.658a5.633 5.633 0 0 0-5.628-5.64m-13.868 0h13.868M82.05 51.09H40.805a2.71 2.71 0 0 0-2.704 2.706v18.251a2.705 2.705 0 0 0 2.704 2.706H82.05a2.703 2.703 0 0 0 2.698-2.706v-18.25a2.703 2.703 0 0 0-2.698-2.707Zm-9.848 19.216c-4.293 0-7.768-3.49-7.774-7.79 0-4.3 3.481-7.789 7.774-7.789s7.768 3.49 7.768 7.79-3.482 7.79-7.768 7.79ZM61.603 34.358c4.93 0 8.7 2.452 9.897 5.66l-20 .08c1.196-3.209 5.172-5.74 10.103-5.74Zm29.975 43.375a3.307 3.307 0 0 1-3.303 3.309h-53.53a3.303 3.303 0 0 1-3.303-3.31v-29.08a3.307 3.307 0 0 1 3.303-3.31h53.53a3.303 3.303 0 0 1 3.303 3.31z"/><defs><linearGradient id="a" x1="60" x2="60" y1="-.13" y2="119.87" gradientUnits="userSpaceOnUse"><stop stop-color="#C873F5"/><stop offset="1" stop-color="#7B33BB"/></linearGradient><linearGradient id="b" x1="61.5" x2="61.5" y1="29" y2="85" gradientUnits="userSpaceOnUse"><stop stop-color="#F0D8FF"/><stop offset="1" stop-color="#CD8FFF"/></linearGradient><linearGradient id="c" x1="61.5" x2="61.5" y1="29" y2="85" gradientUnits="userSpaceOnUse"><stop stop-color="#F0D8FF"/><stop offset="1" stop-color="#CD8FFF"/></linearGradient><linearGradient id="d" x1="61.5" x2="61.5" y1="29" y2="85" gradientUnits="userSpaceOnUse"><stop stop-color="#F9F2FF"/><stop offset="1" stop-color="#C275FF"/></linearGradient></defs></svg>
